src/assets/icons/stroke/arrowUndo.svg

<svg xmlns="http://www.w3.org/2000/svg" width="1em" height="1em" fill="none"><path fill="currentColor" d="M10.4 9.4a10 10 0 0 0-4.6 2L3 8.5v7h7l-2.7-2.7a8.3 8.3 0 0 1 11.5 1.9l.5.8 1.8-.9a10.4 10.4 0 0 0-10.7-5.2Z"/></svg>

<svg width="1em" height="1em" viewBox="0 0 24 24" fill="none" xmlns="http://www.w3.org/2000/svg">
    <path
        d="M10.4 9.4C8.7 9.7 7.2 10.3 5.8 11.4L3 8.5V15.5H10L7.3 12.8C11 10.2 16.1 11 18.8 14.7C19 15 19.2 15.2 19.3 15.5L21.1 14.6C18.9 10.8 14.7 8.7 10.4 9.4Z"
        fill="currentColor" />

</svg>
